X:1
T:[ID 3-9]
T:[ID 3-9]
T:Bezeichnung standardisiert: Siciliano Siciliano
T:Urheber unbekannt Erstbeleg: 1767 (Datum in der schriftlichen Quelle) Datum in der hier transkribierten schriftlichen Quelle: 1775
C:Urheber unbekannt
C:Erstbeleg: 1767 (Datum in der schriftlichen Quelle)
C:Datum in der hier transkribierten schriftlichen Quelle: 1775
L:1/8
M:6/8
K:D
V:1 treble 
V:1
 f | d>AF f2 g | f2 A A2 e | d2 A f2 e | d2 c c2 f | dfa dgb | dfa d2 b | a2 c BeB | c2 c c2 :: A | %10
 A>fe A>ed | A>dc A2 E | A>fe A>ed | A>dc A2 E | d>cB f2 F | B>^DF B2 f | d>AF f2 g | f2 c c2 e | %18
 d2 A f2 e | d2 c c2 f | bgg aff | gee c2 f | d>AF E>AG | F2 F F2 :| %24

